html-css/module-10/img/icon/icon-line.svg

<svg xmlns="http://www.w3.org/2000/svg" width="32" height="32"><path fill-rule="evenodd" fill="#95E1D3" d="M30.5 32h-29A1.5 1.5 0 010 30.499v-29A1.5 1.5 0 011.5 0h29A1.5 1.5 0 0132 1.499v29A1.5 1.5 0 0130.5 32zM29 3H3v26h26V3zM5.215 16.238v-.001l4-2.5v.002a1.497 1.497 0 011.625.035l.006-.008 6.631 4.42 7.638-5.392a1.5 1.5 0 111.763 2.426l.001.001-8.5 6h-.001c-.246.179-.55.284-.878.284-.321 0-.618-.101-.861-.272l-6.657-4.438-3.135 1.96a1.5 1.5 0 11-1.632-2.517z"/></svg>

<svg
 xmlns="http://www.w3.org/2000/svg"
 width="32px" height="32px" vievbox="0 0 32 32">
<path fill-rule="evenodd"  fill="rgb(149, 225, 211)"
 d="M30.500,32.000 L1.500,32.000 C0.672,32.000 0.000,31.328 0.000,30.499 L0.000,1.499 C0.000,0.672 0.672,-0.000 1.500,-0.000 L30.500,-0.000 C31.328,-0.000 32.000,0.672 32.000,1.499 L32.000,30.499 C32.000,31.328 31.328,32.000 30.500,32.000 ZM29.000,3.000 L3.000,3.000 L3.000,29.000 L29.000,29.000 L29.000,3.000 ZM5.215,16.238 L5.215,16.237 L9.215,13.737 L9.215,13.739 C9.444,13.598 9.712,13.517 10.000,13.517 C10.311,13.517 10.600,13.612 10.840,13.774 L10.846,13.766 L17.477,18.186 L25.115,12.794 C25.363,12.613 25.669,12.505 26.000,12.505 C26.828,12.505 27.500,13.177 27.500,14.005 C27.500,14.505 27.255,14.948 26.878,15.220 L26.879,15.221 L18.379,21.221 L18.378,21.221 C18.132,21.400 17.828,21.505 17.500,21.505 C17.179,21.505 16.882,21.404 16.639,21.233 L9.982,16.795 L6.847,18.755 C6.606,18.920 6.314,19.017 6.000,19.017 C5.172,19.017 4.500,18.345 4.500,17.517 C4.500,16.976 4.786,16.502 5.215,16.238 Z"/>
</svg>
